X: 20450
T: John Joe Harnett's
R: slide
M: 12/8
K: Gmajor
|:D|G3 AGE G2 E D2 e|d2 B BAG B2 A AGE|
G3 AGE G2 E D2 e|d2 B ABA G3 G2:|
|:A|B3 BAG A3 AGE|G3 GAB d3 B2 A|
G3 AGE G2 E D2 e|d2 B ABA G3 G2:|

